X: 7035
T: Chill Sundays
R: reel
M: 4/4
K: Amajor
|:eaae geae|cecB c/B/AAc|eaae geae|b3a3f2|
eaae geae|cecB c/B/AAB|1 F3AE3G|BFGA B2cd:|2 F3AE3c|BecB A4||
|:GAAG AAcA|GAAG Acdc|GAAE2AAA|B2Bc B2BB|
GAAG AAcA|GAAG Acdc|1 fecd3fa|e3cB2BB:|2 F3AE3c|BecB A4||

